X: 265
T:Ave nobilissima creatura / Tibi domina gloriosa
N: Derived from Jos2311-Ave_nobilissima_creatura.krn
C: Josquin des Prez
%%abc-version 2.0
%%abcx-abcm2ps-target-version 5.9.1 (29 Sep 2008)
%%abc-creator hum2abc beta
%%abcx-conversion-date 2019/02/12 16:15:51
%%abc-edited-by Jesse Rodin
%%abc-edited-by Will Watson 04/30/2011
%%abcx-initial-encoding-date 2011/04/30/
%%humdrum-veritas 359657753
%%humdrum-veritas-data 1568196004
%%linebreak <none>
%%barnumbers 0
L: 1/4
M: 2/1
Q: 1/2=120
V: 1 clef=treble
V: 2 clef=treble-8
V: 3 clef=treble-8
V: 4 clef=treble-8
V: 5 clef=bass
V: 6 clef=bass
K: F
[V:1] A8 | 
[V:2] z8 | 
[V:3] A6d2- | 
[V:4] z8 | 
[V:5] z8 | 
[V:6] z8 | 
[V:1] A8 | 
[V:2] z8 | 
[V:3] d2cBc2d2 | 
[V:4] z8 | 
[V:5] z8 | 
[V:6] z8 | 
[V:1] B4A2B2- | 
[V:2] d8 | 
[V:3] G4F2G2- | 
[V:4] z8 | 
[V:5] z8 | 
[V:6] z8 | 
[V:1] B2AGF4 | 
[V:2] d8 | 
[V:3] G2FED4 | 
[V:4] z8 | 
[V:5] z8 | 
[V:6] z8 | 
[V:1] G8- | 
[V:2] _e4d2_e2- | 
[V:3] C2c2B2c2- | 
[V:4] z8 | 
[V:5] z8 | 
[V:6] z8 | 
[V:1] G8 | 
[V:2] e2dcB4 | 
[V:3] c2BAG4 | 
[V:4] z8 | 
[V:5] z8 | 
[V:6] z8 | 
[V:1] A3Bc2A2- | 
[V:2] c8- | 
[V:3] F4z2F2- | 
[V:4] z8 | 
[V:5] A,8 | 
[V:6] z8 | 
[V:1] A2GFE4 | 
[V:2] c8 | 
[V:3] F2G2A4 | 
[V:4] z8 | 
[V:5] A,8 | 
[V:6] z8 | 
[V:1] D8- | 
[V:2] d3ef2d2- | 
[V:3] D4z4 | 
[V:4] z8 | 
[V:5] B,4A,2B,2- | 
[V:6] D,8 | 
[V:1] D8 | 
[V:2] d2cBA4 | 
[V:3] z8 | 
[V:4] z8 | 
[V:5] B,2A,G,F,4 | 
[V:6] D,8 | 
[V:1] z8 | 
[V:2] G8- | 
[V:3] z8 | 
[V:4] z8 | 
[V:5] G,2C,2B,,2C,2- | 
[V:6] _E,4D,2E,2- | 
[V:1] z8 | 
[V:2] G8 | 
[V:3] z4d4 | 
[V:4] z8 | 
[V:5] C,2B,,A,,G,,4 | 
[V:6] E,2D,C,B,,4 | 
[V:1] z8 | 
[V:2] z8 | 
[V:3] _e4d2_e2- | 
[V:4] z8 | 
[V:5] G,8- | 
[V:6] C,4B,,2C,2- | 
[V:1] z8 | 
[V:2] z4d4 | 
[V:3] e2dcB4 | 
[V:4] z8 | 
[V:5] G,4G,4 | 
[V:6] C,2B,,A,,G,,4 | 
[V:1] z4G4 | 
[V:2] _e8 | 
[V:3] c4c4 | 
[V:4] z8 | 
[V:5] G,4G,4 | 
[V:6] C,4C,4 | 
[V:1] G4G4 | 
[V:2] _e8 | 
[V:3] c4c4 | 
[V:4] z8 | 
[V:5] G,8 | 
[V:6] C,4C,4 | 
[V:1] F6G2 | 
[V:2] d8 | 
[V:3] A4A4 | 
[V:4] z8 | 
[V:5] z4D,4 | 
[V:6] D,8 | 
[V:1] A3Bc2A2- | 
[V:2] c4A4 | 
[V:3] A4F4 | 
[V:4] z8 | 
[V:5] F,4F,4 | 
[V:6] z8 | 
[V:1] A2GFG4 | 
[V:2] d4d2e2 | 
[V:3] B8 | 
[V:4] z8 | 
[V:5] G,8 | 
[V:6] z8 | 
[V:1] A8 | 
[V:2] f6d2- | 
[V:3] A8- | 
[V:4] z8 | 
[V:5] D,8 | 
[V:6] z4D,4 | 
[V:1] z8 | 
[V:2] d2f4_ed | 
[V:3] A4B4 | 
[V:4] z8 | 
[V:5] F,6G,2- | 
[V:6] D,4B,,4 | 
[V:1] z8 | 
[V:2] _e2d4c2 | 
[V:3] G8 | 
[V:4] z8 | 
[V:5] G,A,B,4A,G, | 
[V:6] _E,8 | 
[V:1] z4A4 | 
[V:2] d8 | 
[V:3] A8 | 
[V:4] z8 | 
[V:5] F,8- | 
[V:6] D,8- | 
[V:1] A4A4 | 
[V:2] z8 | 
[V:3] z4d4 | 
[V:4] z8 | 
[V:5] F,8 | 
[V:6] D,8 | 
[V:1] B4A4 | 
[V:2] z8 | 
[V:3] d4d4 | 
[V:4] z8 | 
[V:5] z8 | 
[V:6] z8 | 
[V:1] c4B4 | 
[V:2] z8 | 
[V:3] e4d4 | 
[V:4] z8 | 
[V:5] z8 | 
[V:6] z8 | 
[V:1] A4G3A | 
[V:2] z8 | 
[V:3] f4e4 | 
[V:4] z8 | 
[V:5] z8 | 
[V:6] z8 | 
[V:1] B2A3GFE | 
[V:2] d4d4 | 
[V:3] d2f3edc | 
[V:4] z8 | 
[V:5] z8 | 
[V:6] z8 | 
[V:1] D2d4c2 | 
[V:2] d4e4 | 
[V:3] B2G2z4 | 
[V:4] z8 | 
[V:5] z8 | 
[V:6] z8 | 
[V:1] B2A4c2 | 
[V:2] d4f3e | 
[V:3] z4z2F2 | 
[V:4] z8 | 
[V:5] z8 | 
[V:6] z8 | 
[V:1] B2A4GF | 
[V:2] d2c3Ad2- | 
[V:3] G2A2F2ED | 
[V:4] z8 | 
[V:5] z4A,4 | 
[V:6] z8 | 
[V:1] E4D4- | 
[V:2] d2^c2d4- | 
[V:3] A4F2A2- | 
[V:4] z8 | 
[V:5] A,4A,4 | 
[V:6] z4D,4 | 
[V:1] D4z4 | 
[V:2] d8 | 
[V:3] AGG4F2 | 
[V:4] z8 | 
[V:5] B,4A,4 | 
[V:6] D,4D,4 | 
[V:1] z8 | 
[V:2] z8 | 
[V:3] G3ABcd2- | 
[V:4] z8 | 
[V:5] C4B,4 | 
[V:6] E,4D,4 | 
[V:1] z8 | 
[V:2] z8 | 
[V:3] d2c3BG2 | 
[V:4] z8 | 
[V:5] A,4z2G,2- | 
[V:6] F,4E,4 | 
[V:1] z8 | 
[V:2] z8 | 
[V:3] A4c2B2- | 
[V:4] z8 | 
[V:5] G,2F,2E,2F,2- | 
[V:6] D,4C,2D,2- | 
[V:1] z8 | 
[V:2] z8 | 
[V:3] BAG4^F2 | 
[V:4] z8 | 
[V:5] F,E,D,4C,2 | 
[V:6] D,2C,B,,A,,4 | 
[V:1] z8 | 
[V:2] d8 | 
[V:3] G8 | 
[V:4] z8 | 
[V:5] D,4D,4 | 
[V:6] G,,8 | 
[V:1] G8 | 
[V:2] c4B4 | 
[V:3] z4G4 | 
[V:4] z8 | 
[V:5] _E,4D,4 | 
[V:6] z4G,,4 | 
[V:1] G4G4 | 
[V:2] c8 | 
[V:3] G4G4 | 
[V:4] z8 | 
[V:5] _E,8 | 
[V:6] C,4C,4 | 
[V:1] B8 | 
[V:2] d8 | 
[V:3] G8 | 
[V:4] z8 | 
[V:5] D,8 | 
[V:6] G,,8 | 
[V:1] A4A4 | 
[V:2] z4d4 | 
[V:3] F4F4 | 
[V:4] z8 | 
[V:5] z4F,4 | 
[V:6] D,8 | 
[V:1] G4F4 | 
[V:2] _e4d4 | 
[V:3] G3AB2A2- | 
[V:4] z8 | 
[V:5] C,4D,4 | 
[V:6] z4D,4 | 
[V:1] G8 | 
[V:2] B4c4 | 
[V:3] A2GFG4 | 
[V:4] z8 | 
[V:5] G,4C,4 | 
[V:6] _E,4E,4 | 
[V:1] F4F4 | 
[V:2] d4d4 | 
[V:3] A4A4 | 
[V:4] z8 | 
[V:5] F,4F,4 | 
[V:6] D,8 | 
[V:1] G4F4 | 
[V:2] d4d4 | 
[V:3] B4A4 | 
[V:4] z8 | 
[V:5] D,4F,4 | 
[V:6] G,,4D,4 | 
[V:1] D4G4- | 
[V:2] d8 | 
[V:3] B8 | 
[V:4] z8 | 
[V:5] G,4D,4 | 
[V:6] B,,4G,,4 | 
[V:1] G2^FEF4 | 
[V:2] d8 | 
[V:3] A8 | 
[V:4] z8 | 
[V:5] F,8 | 
[V:6] D,8 | 
[V:1] G4G4- | 
[V:2] z4d4- | 
[V:3] z4B4- | 
[V:4] G8- | 
[V:5] D,8 | 
[V:6] G,,8 | 
[V:1] G4G4 | 
[V:2] d4d4 | 
[V:3] B4B4 | 
[V:4] G8- | 
[V:5] G,,8 | 
[V:6] z4G,,4- | 
[V:1] B4B4 | 
[V:2] d4B4 | 
[V:3] d4d4 | 
[V:4] G8 | 
[V:5] G,8 | 
[V:6] G,,4G,,4 | 
[V:1] A4A4 | 
[V:2] f6d2- | 
[V:3] d4d4 | 
[V:4] A8- | 
[V:5] F,6F,2 | 
[V:6] D,4D,4 | 
[V:1] F4D4 | 
[V:2] def4ed | 
[V:3] A4d4 | 
[V:4] A8- | 
[V:5] D,4F,4 | 
[V:6] D,4D,4 | 
[V:1] A3Bc2A2- | 
[V:2] e2A2z2A2 | 
[V:3] c4z2c2- | 
[V:4] A8 | 
[V:5] E,6C,2 | 
[V:6] A,,8 | 
[V:1] A2GFE4 | 
[V:2] F2c3BG2 | 
[V:3] c2BAG4 | 
[V:4] c8- | 
[V:5] F,4C,4 | 
[V:6] z4z2C,2 | 
[V:1] z2A2G2E2 | 
[V:2] A4z2G2 | 
[V:3] F4z2c2 | 
[V:4] c8- | 
[V:5] z2F,2E,2C,2 | 
[V:6] A,,2F,,2C,4 | 
[V:1] A4G4 | 
[V:2] A2c3BG2 | 
[V:3] A2F2G2E2 | 
[V:4] c8 | 
[V:5] F,4C,4- | 
[V:6] z4z2C,2 | 
[V:1] z4G4 | 
[V:2] z4c4 | 
[V:3] A4G4 | 
[V:4] c8- | 
[V:5] C,2F,4E,2 | 
[V:6] A,,2F,,2C,4 | 
[V:1] A6F2 | 
[V:2] A2F2A3B | 
[V:3] z2c3BA2- | 
[V:4] c8- | 
[V:5] F,8- | 
[V:6] F,,6F,2- | 
[V:1] A2B2c4 | 
[V:2] c2F2G2A2 | 
[V:3] A2GFE4 | 
[V:4] c8 | 
[V:5] F,4z4 | 
[V:6] F,2E,D,C,4 | 
[V:1] F4z4 | 
[V:2] B3AG2F2 | 
[V:3] D2F2G2A2 | 
[V:4] d8- | 
[V:5] z2D,2G,,2D,2 | 
[V:6] B,,4z4 | 
[V:1] z4z2A2 | 
[V:2] D2G2z2A2 | 
[V:3] B3AG2F2 | 
[V:4] d8- | 
[V:5] B,,2G,,2D,4 | 
[V:6] z2D,2G,,2D,2 | 
[V:1] B3AG2F2 | 
[V:2] d3cB2A2 | 
[V:3] D2G2z2A2 | 
[V:4] d8 | 
[V:5] z2D,2G,,2D,2 | 
[V:6] B,,2G,,2D,4 | 
[V:1] D2G2z2A2 | 
[V:2] G4z2D2 | 
[V:3] B3AG2F2 | 
[V:4] d8- | 
[V:5] B,,2G,,2D,4 | 
[V:6] z2D,2G,,2D,2 | 
[V:1] B2d3cA2 | 
[V:2] G2B2A4 | 
[V:3] D4z2A2 | 
[V:4] d8- | 
[V:5] z2G,4F,2 | 
[V:6] B,,2G,,2D,4 | 
[V:1] G2B3AA2- | 
[V:2] z4d4- | 
[V:3] B2d3cA2 | 
[V:4] d8 | 
[V:5] G,4D,4 | 
[V:6] z2G,4F,2 | 
[V:1] A2G2A4 | 
[V:2] d4d4 | 
[V:3] B4A4 | 
[V:4] z8 | 
[V:5] z2G,,2D,4 | 
[V:6] G,4z2D,2 | 
[V:1] F4G4 | 
[V:2] A3Bc2G2 | 
[V:3] z4G4 | 
[V:4] z8 | 
[V:5] F,4E,4 | 
[V:6] D,2D,2C,4 | 
[V:1] B4A2B2- | 
[V:2] d3ef2d2- | 
[V:3] G4F4 | 
[V:4] z8 | 
[V:5] D,4z4 | 
[V:6] G,,4D,4 | 
[V:1] B2AGF4- | 
[V:2] d2c2d4- | 
[V:3] G4A4 | 
[V:4] z8 | 
[V:5] C,4F,3G, | 
[V:6] _E,4D,4 | 
[V:1] F4z4 | 
[V:2] d8 | 
[V:3] A4B4 | 
[V:4] z8 | 
[V:5] A,2D,2G,2F,2- | 
[V:6] D,4G,,2D,2- | 
[V:1] z8 | 
[V:2] z4d4 | 
[V:3] A2A4G2 | 
[V:4] z8 | 
[V:5] F,2E,2D,4 | 
[V:6] D,2C,2B,,4 | 
[V:1] z4c4 | 
[V:2] c2A3Bcd | 
[V:3] A8 | 
[V:4] c8- | 
[V:5] E,8 | 
[V:6] A,,8 | 
[V:1] c4c4 | 
[V:2] e4A2c2- | 
[V:3] A4z4 | 
[V:4] c8- | 
[V:5] z4F,4 | 
[V:6] z8 | 
[V:1] A6F2 | 
[V:2] c2c2c2A2- | 
[V:3] A4A2A2 | 
[V:4] c8 | 
[V:5] F,4F,4 | 
[V:6] z8 | 
[V:1] F3DD2G2- | 
[V:2] A2F2B2G2- | 
[V:3] A4G3A | 
[V:4] d8- | 
[V:5] D,6B,,2 | 
[V:6] z4G,,4 | 
[V:1] G2G2G4 | 
[V:2] GABcd2B2 | 
[V:3] Bcd2G2d2 | 
[V:4] d8 | 
[V:5] B,,3G,,G,,2G,2- | 
[V:6] G,,4G,,4 | 
[V:1] G2z2G4 | 
[V:2] c6c2 | 
[V:3] z2G4G2 | 
[V:4] e8 | 
[V:5] G,2G,2E,4 | 
[V:6] C,4C,4 | 
[V:1] A4A4 | 
[V:2] A2A2F4 | 
[V:3] c4A2A2 | 
[V:4] c8 | 
[V:5] F,4z4 | 
[V:6] F,,4F,,4 | 
[V:1] F4z2B2 | 
[V:2] z2B2A2d2- | 
[V:3] B2AGF2G2 | 
[V:4] d8- | 
[V:5] z2D,2D,3E, | 
[V:6] B,,4z2G,,2 | 
[V:1] A2G2F2G2 | 
[V:2] d2cBA2G2 | 
[V:3] D4z2B2 | 
[V:4] d4d4 | 
[V:5] F,2G,4G,,2 | 
[V:6] D,2G,,2D,3E, | 
[V:1] D3EF2B,2 | 
[V:2] z4z2B2 | 
[V:3] A2G2F2G2 | 
[V:4] d8- | 
[V:5] D,2G,,2D,3E, | 
[V:6] F,2G,2z2G,,2 | 
[V:1] z8 | 
[V:2] A2G2F2G2 | 
[V:3] z2B2A2d2- | 
[V:4] d8- | 
[V:5] F,2G,2z2G,,2 | 
[V:6] D,2G,,2D,3E, | 
[V:1] z8 | 
[V:2] D3EF2G2 | 
[V:3] d2cBA2G2 | 
[V:4] d8 | 
[V:5] D,2G,,2D,3E, | 
[V:6] F,2G,2z2G,,2 | 
[V:1] B6B2 | 
[V:2] z4d4 | 
[V:3] z4z2B2- | 
[V:4] z8 | 
[V:5] F,2G,2G,,2G,2 | 
[V:6] D,2G,,3A,,B,,C, | 
[V:1] B4A4 | 
[V:2] d3efef2- | 
[V:3] B2AGd4 | 
[V:4] z8 | 
[V:5] F,2G,2D,4- | 
[V:6] D,2G,,2z4 | 
[V:1] F3GAGA2- | 
[V:2] fFf2e2f2- | 
[V:3] D2d2c2A2 | 
[V:4] z8 | 
[V:5] D,4z4 | 
[V:6] z8 | 
[V:1] A2GFE4 | 
[V:2] fed4^c2 | 
[V:3] d4A4 | 
[V:4] z8 | 
[V:5] z8 | 
[V:6] z8 | 
[V:1] D8 | 
[V:2] d4D3E | 
[V:3] z4z2d2 | 
[V:4] z8 | 
[V:5] B,8 | 
[V:6] z2G,,3A,,B,,C, | 
[V:1] z8 | 
[V:2] F2G2z4 | 
[V:3] d3efef2- | 
[V:4] z8 | 
[V:5] B,4A,4 | 
[V:6] D,2G,,2D,4 | 
[V:1] z8 | 
[V:2] F2G2z4 | 
[V:3] fFf2e2f2- | 
[V:4] A8- | 
[V:5] F,3G,A,G,A,2- | 
[V:6] z2D,2C,2A,,2 | 
[V:1] z4z2A2 | 
[V:2] z8 | 
[V:3] fed4^c2 | 
[V:4] A8- | 
[V:5] A,2G,F,E,4 | 
[V:6] D,4A,,4 | 
[V:1] F3GABA2- | 
[V:2] z2d2c2A2 | 
[V:3] d4z4 | 
[V:4] A8 | 
[V:5] D,4F,4 | 
[V:6] D,4z2D,2 | 
[V:1] AGG4^F2 | 
[V:2] B4A2A2 | 
[V:3] z8 | 
[V:4] d8- | 
[V:5] G,4z2D,2 | 
[V:6] B,,2G,,2D,4 | 
[V:1] G8 | 
[V:2] G4G4- | 
[V:3] z2B2B2B2 | 
[V:4] d8 | 
[V:5] D,2D,2G,4 | 
[V:6] G,,8 | 
[V:1] z4G4- | 
[V:2] G2G2G4 | 
[V:3] G2c3def | 
[V:4] c8- | 
[V:5] E,6E,2 | 
[V:6] C,6C,2 | 
[V:1] G2G2G4 | 
[V:2] G4z2G2 | 
[V:3] g2c2z2d2- | 
[V:4] c4B4 | 
[V:5] E,4D,4- | 
[V:6] C,4G,,4 | 
[V:1] A2FGABc2- | 
[V:2] F2D2E4 | 
[V:3] d2A2c4 | 
[V:4] A8 | 
[V:5] D,4z2C,2 | 
[V:6] z2D,2C,2A,,2 | 
[V:1] c2G2B4 | 
[V:2] z2c2B2d2- | 
[V:3] G4d4- | 
[V:4] G8 | 
[V:5] E,3F,G,2D,2- | 
[V:6] C,3B,,G,,4 | 
[V:1] A2F4ED | 
[V:2] dcA2z2f2 | 
[V:3] d4D4 | 
[V:4] A8- | 
[V:5] D,E,F,G,A,4 | 
[V:6] D,4z2D,2 | 
[V:1] E2D2A4 | 
[V:2] e2f4ed | 
[V:3] z8 | 
[V:4] A8- | 
[V:5] z4z2D,2 | 
[V:6] C,2D,4C,B,, | 
[V:1] z2A2F2D2 | 
[V:2] c2e3dd2- | 
[V:3] z8 | 
[V:4] A8 | 
[V:5] E,2C,2D,2F,2 | 
[V:6] A,,4z4 | 
[V:1] G3AB2G2- | 
[V:2] d2c2d4 | 
[V:3] z4z2d2 | 
[V:4] G8- | 
[V:5] E,4D,4 | 
[V:6] z4G,,4 | 
[V:1] G2FED2C2 | 
[V:2] G4z4 | 
[V:3] e2c2d2G2 | 
[V:4] G8- | 
[V:5] z4z2G,2 | 
[V:6] C,4B,,2C,2- | 
[V:1] G4z2G2 | 
[V:2] z8 | 
[V:3] c4B2G2- | 
[V:4] G8 | 
[V:5] E,2C,2D,4 | 
[V:6] C,2B,,A,,G,,4 | 
[V:1] B3AG2F2 | 
[V:2] d4d2d2 | 
[V:3] GABcd2D2 | 
[V:4] z8 | 
[V:5] G,,2G,2B,3A, | 
[V:6] z8 | 
[V:1] G2A2D4 | 
[V:2] d6f2- | 
[V:3] z2A2B2A2 | 
[V:4] z8 | 
[V:5] G,2F,2G,2D,2- | 
[V:6] z8 | 
[V:1] z8 | 
[V:2] f2ede2d2- | 
[V:3] F2B4A2- | 
[V:4] z8 | 
[V:5] D,2G,4F,2 | 
[V:6] z8 | 
[V:1] z4A4 | 
[V:2] d2^c2d4 | 
[V:3] A2G2A4 | 
[V:4] z8 | 
[V:5] E,4D,4- | 
[V:6] z8 | 
[V:1] A2A2A4- | 
[V:2] f3ed2c2 | 
[V:3] z8 | 
[V:4] z8 | 
[V:5] D,4z4 | 
[V:6] z8 | 
[V:1] A2c4BA | 
[V:2] d2A4d2- | 
[V:3] z8 | 
[V:4] z8 | 
[V:5] z8 | 
[V:6] z8 | 
[V:1] B2A4G2 | 
[V:2] d2c2B4 | 
[V:3] z8 | 
[V:4] z8 | 
[V:5] z8 | 
[V:6] z8 | 
[V:1] A4z4 | 
[V:2] A4z4 | 
[V:3] z4A4 | 
[V:4] z8 | 
[V:5] z2D,2F,3E, | 
[V:6] z4z2D,2 | 
[V:1] A4A2A2 | 
[V:2] z2c2A2c2 | 
[V:3] A2A2A4- | 
[V:4] z8 | 
[V:5] D,2C,2D,2A,,2 | 
[V:6] F,3E,D,2C,2 | 
[V:1] A4A4 | 
[V:2] z2A2F2A2 | 
[V:3] A2c4BA | 
[V:4] F8- | 
[V:5] A,4z4 | 
[V:6] D,2A,,2z2D,2- | 
[V:1] F4z4 | 
[V:2] D2A2B2G2 | 
[V:3] B2A2z2d2- | 
[V:4] F4G4 | 
[V:5] z4D,4 | 
[V:6] D,2C,2B,,4 | 
[V:1] z8 | 
[V:2] c2A4d2- | 
[V:3] d2^c2d4 | 
[V:4] A8 | 
[V:5] E,4F,4 | 
[V:6] A,,4D,4 | 
[V:1] D4G4 | 
[V:2] d2G2d4 | 
[V:3] z8 | 
[V:4] B8 | 
[V:5] G,8 | 
[V:6] z4G,,4 | 
[V:1] G2E4A2- | 
[V:2] e4c4 | 
[V:3] G4A4 | 
[V:4] c8 | 
[V:5] E,4E,4 | 
[V:6] C,4A,,4 | 
[V:1] A2F4D2- | 
[V:2] d8 | 
[V:3] A4D4 | 
[V:4] A8 | 
[V:5] F,8 | 
[V:6] D,4D,4 | 
[V:1] D2G3AB2 | 
[V:2] d4z2G2- | 
[V:3] G4G3A | 
[V:4] B8- | 
[V:5] G,4z4 | 
[V:6] G,,3A,,B,,2G,,2 | 
[V:1] G2d2z2G2- | 
[V:2] GAB2G2d2- | 
[V:3] B2G2d4- | 
[V:4] B8- | 
[V:5] G,,3A,,B,,2G,,2 | 
[V:6] G,4z4 | 
[V:1] GAB2G2d2- | 
[V:2] d2d2d3e | 
[V:3] d4z2G2 | 
[V:4] B8 | 
[V:5] G,8 | 
[V:6] G,,3A,,B,,2G,,2 | 
[V:1] d2d2A4 | 
[V:2] fdf2F3G | 
[V:3] A2D4d2 | 
[V:4] A8- | 
[V:5] F,4z2D,2 | 
[V:6] D,8 | 
[V:1] z2A4F2 | 
[V:2] ABc2F2f2 | 
[V:3] c2A2d4 | 
[V:4] A8- | 
[V:5] E,2C,2D,4 | 
[V:6] A,,4z4 | 
[V:1] c4A4 | 
[V:2] e2c2d2f2- | 
[V:3] c4z2F2 | 
[V:4] A8- | 
[V:5] E,4z2D,2 | 
[V:6] A,,4D,4 | 
[V:1] A8- | 
[V:2] fee4d2 | 
[V:3] c3BA2F2 | 
[V:4] A8- | 
[V:5] E,2C,2F,4 | 
[V:6] A,,4z4 | 
[V:1] A8 ||  
[V:2] e8 ||  
[V:3] c8 ||  
[V:4] A8 ||  
[V:5] E,8 ||  
[V:6] A,,8 ||  
[V:1]  [K:F] [K:clef=treble][M:2/1]z8 | 
[V:2]  [K:F] [K:clef=treble-8][M:2/1]A8 | 
[V:3]  [K:F] [K:clef=treble-8][M:2/1]z8 | 
[V:4]  [K:F] [K:clef=treble-8][M:2/1]z8 | 
[V:5]  [K:F] [K:clef=bass][M:2/1]z8 | 
[V:6]  [K:F] [K:clef=bass][M:2/1]z8 | 
[V:1] z8 | 
[V:2] c4d4- | 
[V:3] z8 | 
[V:4] z8 | 
[V:5] z8 | 
[V:6] z8 | 
[V:1] z8 | 
[V:2] d2d2d2f2- | 
[V:3] z8 | 
[V:4] z8 | 
[V:5] D,8 | 
[V:6] z8 | 
[V:1] z8 | 
[V:2] f2ede2d2- | 
[V:3] z8 | 
[V:4] z8 | 
[V:5] F,4G,4- | 
[V:6] z8 | 
[V:1] z4D4- | 
[V:2] dcBAB2G2 | 
[V:3] z8 | 
[V:4] z8 | 
[V:5] G,2G,2G,2B,2- | 
[V:6] z8 | 
[V:1] D4F4 | 
[V:2] z2d4c2- | 
[V:3] z8 | 
[V:4] z8 | 
[V:5] B,2A,G,A,4 | 
[V:6] z8 | 
[V:1] G6G2 | 
[V:2] c2B2c2G2- | 
[V:3] z4G4- | 
[V:4] z8 | 
[V:5] G,4C,4 | 
[V:6] z8 | 
[V:1] G2B4AG | 
[V:2] GABcdefe | 
[V:3] G4B4 | 
[V:4] z8 | 
[V:5] z4G,4 | 
[V:6] z8 | 
[V:1] A4G2c2- | 
[V:2] f2F2G2F2- | 
[V:3] c6c2 | 
[V:4] z8 | 
[V:5] F,4E,2A,2- | 
[V:6] z8 | 
[V:1] cBA4GF | 
[V:2] F2EDA4 | 
[V:3] c4c4 | 
[V:4] z8 | 
[V:5] A,2G,F,E,4 | 
[V:6] A,,8 | 
[V:1] E4D4 | 
[V:2] A8 | 
[V:3] c4A2d2- | 
[V:4] z8 | 
[V:5] z8 | 
[V:6] C,4D,4- | 
[V:1] z8 | 
[V:2] A4A4- | 
[V:3] def4ed | 
[V:4] z8 | 
[V:5] F,8 | 
[V:6] D,2D,2F,4- | 
[V:1] z8 | 
[V:2] A2B4AG | 
[V:3] c2d4^c2 | 
[V:4] z8 | 
[V:5] F,4G,4 | 
[V:6] F,2E,D,E,4 | 
[V:1] z4A4 | 
[V:2] F4z4 | 
[V:3] d8- | 
[V:4] z8 | 
[V:5] A,4F,4 | 
[V:6] D,6D,2 | 
[V:1] B4A4 | 
[V:2] z8 | 
[V:3] d8- | 
[V:4] z8 | 
[V:5] G,4F,4 | 
[V:6] G,,4D,4 | 
[V:1] F4G4 | 
[V:2] A4B4 | 
[V:3] d8- | 
[V:4] z8 | 
[V:5] D,8 | 
[V:6] z4G,,4 | 
[V:1] A8 | 
[V:2] A4F2A2- | 
[V:3] d8 | 
[V:4] z8 | 
[V:5] z8 | 
[V:6] D,4D,4 | 
[V:1] z8 | 
[V:2] A2G2F2D2- | 
[V:3] z8 | 
[V:4] z8 | 
[V:5] z4A,4 | 
[V:6] _E,4D,4 | 
[V:1] z8 | 
[V:2] D2d2c3B | 
[V:3] d4_e4 | 
[V:4] z8 | 
[V:5] B,4A,2G,2- | 
[V:6] B,,4C,4 | 
[V:1] A4B4 | 
[V:2] AGA2G4 | 
[V:3] d4B4 | 
[V:4] z8 | 
[V:5] G,2F,2G,2D,2 | 
[V:6] D,4G,,4 | 
[V:1] A2G4F2 | 
[V:2] z4A4 | 
[V:3] c4d4- | 
[V:4] z8 | 
[V:5] E,4D,4 | 
[V:6] C,4z4 | 
[V:1] G3FD2F2 | 
[V:2] B4A4 | 
[V:3] d4z2A2 | 
[V:4] z8 | 
[V:5] z8 | 
[V:6] z2G,4F,2 | 
[V:1] E2D4^C2 | 
[V:2] G2F2G4 | 
[V:3] B2A3GG2- | 
[V:4] z8 | 
[V:5] z8 | 
[V:6] G,2D,2E,4 | 
[V:1] D8 | 
[V:2] A4z4 | 
[V:3] G2FEF4- | 
[V:4] z8 | 
[V:5] z4A,4- | 
[V:6] D,4D,4- | 
[V:1] z8 | 
[V:2] d6d2 | 
[V:3] F4z4 | 
[V:4] z8 | 
[V:5] A,2A,2A,4 | 
[V:6] D,2D,2D,4 | 
[V:1] z8 | 
[V:2] d4e4 | 
[V:3] z2G4A2 | 
[V:4] z8 | 
[V:5] B,4C4 | 
[V:6] G,4C,4 | 
[V:1] z8 | 
[V:2] f4d2e2- | 
[V:3] F2D2d2c2- | 
[V:4] z8 | 
[V:5] A,2B,3A,G,2- | 
[V:6] D,4G,,2C,2- | 
[V:1] z8 | 
[V:2] e2d4^c2 | 
[V:3] cBAGA4 | 
[V:4] z8 | 
[V:5] G,2F,2E,4 | 
[V:6] C,2D,2A,,4 | 
[V:1] A6A2 | 
[V:2] d8- | 
[V:3] F6G2 | 
[V:4] z8 | 
[V:5] D,4z4 | 
[V:6] D,6E,2 | 
[V:1] A4B4 | 
[V:2] d8 | 
[V:3] A2D4d2 | 
[V:4] z8 | 
[V:5] D,4G,,4 | 
[V:6] F,4G,4 | 
[V:1] c4B2A2- | 
[V:2] z4z2d2 | 
[V:3] c2_e3dd2- | 
[V:4] z8 | 
[V:5] z2G,4F,2 | 
[V:6] C,4D,4 | 
[V:1] AGG4^F2 | 
[V:2] B2c2A2F2 | 
[V:3] d2c2d4 | 
[V:4] z8 | 
[V:5] G,4A,4 | 
[V:6] _E,4D,4 | 
[V:1] G4G4 | 
[V:2] B6B2 | 
[V:3] d6d2 | 
[V:4] G8- | 
[V:5] G,4z2D,2 | 
[V:6] G,,6G,,2 | 
[V:1] B4B4 | 
[V:2] B2G2d4- | 
[V:3] d4B4 | 
[V:4] G8 | 
[V:5] D,2D,2G,4 | 
[V:6] G,,4G,,4 | 
[V:1] A8 | 
[V:2] d2cBA2F2 | 
[V:3] f6F2 | 
[V:4] A8- | 
[V:5] F,3G,A,2D,2 | 
[V:6] D,8 | 
[V:1] A4A4 | 
[V:2] E2F4ED | 
[V:3] c2A2d4 | 
[V:4] A8 | 
[V:5] C,2D,4C,B,, | 
[V:6] z8 | 
[V:1] A4G2A2- | 
[V:2] A4z4 | 
[V:3] c4z4 | 
[V:4] c8- | 
[V:5] A,,3B,,C,2F,,2 | 
[V:6] z2F,2E,2F,2- | 
[V:1] A2GFG2F2 | 
[V:2] z2F2c4 | 
[V:3] z4z2A2- | 
[V:4] c8 | 
[V:5] z2F,2E,2F,2- | 
[V:6] F,2E,D,C,2F,,2 | 
[V:1] z8 | 
[V:2] A3Bcdc2- | 
[V:3] A2F2G2A2- | 
[V:4] c8- | 
[V:5] F,2E,D,C,2F,,2 | 
[V:6] z2F,2E,2F,2- | 
[V:1] z8 | 
[V:2] cBB4A2 | 
[V:3] A2GFE4 | 
[V:4] c8 | 
[V:5] F,4z4 | 
[V:6] F,2E,D,C,4 | 
[V:1] z2B2A2B2- | 
[V:2] B4z4 | 
[V:3] D3EF2D2 | 
[V:4] d8- | 
[V:5] z2G,2F,2G,2- | 
[V:6] B,,3C,D,2G,,2 | 
[V:1] B2AGA2G2 | 
[V:2] z4z2B2- | 
[V:3] z8 | 
[V:4] d8 | 
[V:5] G,F,2E,D,2G,,2 | 
[V:6] z2G,2F,2G,2- | 
[V:1] z8 | 
[V:2] B2G2A2B2- | 
[V:3] z8 | 
[V:4] d8- | 
[V:5] z2G,2F,2G,2- | 
[V:6] G,2F,E,D,2G,,2 | 
[V:1] z8 | 
[V:2] B2AGA2d2 | 
[V:3] z4z2B2- | 
[V:4] d8 | 
[V:5] G,2F,E,D,2G,,2 | 
[V:6] z2G,2F,2G,2- | 
[V:1] z2G2F2G2- | 
[V:2] B2c2d2B2 | 
[V:3] B2AGA2G2 | 
[V:4] z8 | 
[V:5] z8 | 
[V:6] G,2F,E,D,2_E,2- | 
[V:1] G2FED2B2 | 
[V:2] G2A2B4 | 
[V:3] B2c2d4- | 
[V:4] z8 | 
[V:5] z4z2G,2 | 
[V:6] E,2D,C,B,,3C, | 
[V:1] A2B4AG | 
[V:2] z2d3Bc2 | 
[V:3] d4G3A | 
[V:4] z8 | 
[V:5] F,2G,4F,E, | 
[V:6] D,2G,,2z4 | 
[V:1] F2A3GG2- | 
[V:2] d4G4 | 
[V:3] B2A2B2c2 | 
[V:4] z8 | 
[V:5] D,2F,2_E,2C,2 | 
[V:6] z8 | 
[V:1] G2F2G4 | 
[V:2] z2c2e3f | 
[V:3] A4G4 | 
[V:4] c8- | 
[V:5] F,4z2C,2 | 
[V:6] z4C,4 | 
[V:1] G4G4 | 
[V:2] g2c3BG2 | 
[V:3] z4G4 | 
[V:4] c8 | 
[V:5] E,3F,G,2C,2 | 
[V:6] C,4C,4 | 
[V:1] G4G4- | 
[V:2] B3cd4 | 
[V:3] G4B3c | 
[V:4] d8- | 
[V:5] z2G,2D,2G,2- | 
[V:6] G,,8- | 
[V:1] G4z4 | 
[V:2] G8 | 
[V:3] dGc4=B2 | 
[V:4] d8 | 
[V:5] G,2F,E,D,4 | 
[V:6] G,,8 | 
[V:1] z2c2G2c2- | 
[V:2] G4G4 | 
[V:3] c8 | 
[V:4] e8 | 
[V:5] C,8 | 
[V:6] z4C,4 | 
[V:1] c2BAG4 | 
[V:2] A4z4 | 
[V:3] z8 | 
[V:4] c8 | 
[V:5] z4G,4 | 
[V:6] F,4E,4 | 
[V:1] F4z4 | 
[V:2] z8 | 
[V:3] z2f3edc | 
[V:4] d8- | 
[V:5] A,3G,A,2B,2- | 
[V:6] D,6G,2- | 
[V:1] G4A3G | 
[V:2] z4z2f2- | 
[V:3] B2d3cA2 | 
[V:4] d4d4 | 
[V:5] B,2A,G,F,3E, | 
[V:6] G,2F,E,D,4 | 
[V:1] A2B4AG | 
[V:2] fedcB2d2- | 
[V:3] D4z4 | 
[V:4] d8- | 
[V:5] F,2G,2D,2B,2 | 
[V:6] z2G,,2B,,3C, | 
[V:1] F2G2D2B2 | 
[V:2] dcBAG2D2 | 
[V:3] z4d4 | 
[V:4] d8 | 
[V:5] A,2G,2B,2A,G, | 
[V:6] D,2G,,3A,,B,,C, | 
[V:1] A2G2B2AG | 
[V:2] z8 | 
[V:3] d3cd2f2- | 
[V:4] z8 | 
[V:5] F,2G,4A,2 | 
[V:6] D,2G,,2z4 | 
[V:1] F2G2A4- | 
[V:2] d4e3d | 
[V:3] f2edc3B | 
[V:4] z8 | 
[V:5] B,4A,4 | 
[V:6] z8 | 
[V:1] A4A4 | 
[V:2] e2f4ed | 
[V:3] c2d2A2f2 | 
[V:4] z8 | 
[V:5] z2D,2F,3G, | 
[V:6] z4z2D,2 | 
[V:1] A4A4 | 
[V:2] c2d2A3B | 
[V:3] e2d2f2ed | 
[V:4] z8 | 
[V:5] A,4z2D,2 | 
[V:6] A,,2D,4F,2 | 
[V:1] A8- | 
[V:2] c2A3Ff2 | 
[V:3] c2d2A3B | 
[V:4] A8- | 
[V:5] A,,2F,2D,2A,2- | 
[V:6] E,2D,2F,2E,D, | 
[V:1] A8 | 
[V:2] e2d4^c2 | 
[V:3] c2A2z2A2 | 
[V:4] A8 | 
[V:5] A,2G,F,E,4 | 
[V:6] C,2D,2A,,4 | 
[V:1] F4B4 | 
[V:2] d4B4 | 
[V:3] A2A2G4 | 
[V:4] d8- | 
[V:5] D,8 | 
[V:6] z4G,,4 | 
[V:1] A4B4 | 
[V:2] z2f2d2d2 | 
[V:3] A4D4 | 
[V:4] d8 | 
[V:5] F,8 | 
[V:6] D,4B,,4 | 
[V:1] G8 | 
[V:2] e2c3BG2 | 
[V:3] G4E4 | 
[V:4] c8- | 
[V:5] E,6C,2 | 
[V:6] C,8 | 
[V:1] A4D3E | 
[V:2] c2A2d2G2 | 
[V:3] F4G2d2- | 
[V:4] c4B4 | 
[V:5] C,4G,4 | 
[V:6] A,,4G,,4 | 
[V:1] F2D2A3G | 
[V:2] A2F2c4- | 
[V:3] d2A3Bcd | 
[V:4] A8 | 
[V:5] D,3E,F,2E,2- | 
[V:6] z4A,,4 | 
[V:1] E2G3FD2 | 
[V:2] c2G2d2B2 | 
[V:3] efe3dd2- | 
[V:4] G8 | 
[V:5] E,2C,2D,4 | 
[V:6] C,4B,,4 | 
[V:1] z2A2F2D2 | 
[V:2] c2A2z4 | 
[V:3] d2^c2d4 | 
[V:4] A8- | 
[V:5] E,4D,4 | 
[V:6] A,,4z2D,2- | 
[V:1] E4D4 | 
[V:2] z4z2d2 | 
[V:3] z8 | 
[V:4] A8 | 
[V:5] z2A,2F,2D,2 | 
[V:6] D,2C,2D,4 | 
[V:1] z8 | 
[V:2] B2c2d4 | 
[V:3] z8 | 
[V:4] G8- | 
[V:5] E,4D,4 | 
[V:6] z2C,4B,,2 | 
[V:1] G4G2G2 | 
[V:2] _e4d4 | 
[V:3] z2c4B2 | 
[V:4] G8 | 
[V:5] z8 | 
[V:6] C,4G,,4 | 
[V:1] G4A4 | 
[V:2] z8 | 
[V:3] c2_e2d4 | 
[V:4] z8 | 
[V:5] z8 | 
[V:6] z8 | 
[V:1] G4B4 | 
[V:2] d4d2d2 | 
[V:3] G8 | 
[V:4] z8 | 
[V:5] z2B,4A,G, | 
[V:6] z8 | 
[V:1] A2B2cBAG | 
[V:2] d4_e4 | 
[V:3] z8 | 
[V:4] z8 | 
[V:5] F,2G,2C,4 | 
[V:6] z8 | 
[V:1] F2D3EFG | 
[V:2] d4f4 | 
[V:3] A4A2A2 | 
[V:4] z8 | 
[V:5] D,8- | 
[V:6] z8 | 
[V:1] ABA3GG2- | 
[V:2] d2f4_ed | 
[V:3] A4B4 | 
[V:4] z8 | 
[V:5] D,4D,2D,2 | 
[V:6] z8 | 
[V:1] G2^F2G4 | 
[V:2] dAd4c2 | 
[V:3] A4G3A | 
[V:4] z8 | 
[V:5] D,4_E,4 | 
[V:6] z8 | 
[V:1] z8 | 
[V:2] d8 | 
[V:3] B2A2D2f2- | 
[V:4] F8- | 
[V:5] D,_E,F,G,A,2B,2 | 
[V:6] D,4D,2D,2 | 
[V:1] z8 | 
[V:2] z8 | 
[V:3] fed4c2 | 
[V:4] F4G4 | 
[V:5] A,2B,4A,G, | 
[V:6] D,4_E,4 | 
[V:1] z4F4 | 
[V:2] z2A4d2- | 
[V:3] d8- | 
[V:4] A8 | 
[V:5] F,4D,4 | 
[V:6] D,8 | 
[V:1] D4G4- | 
[V:2] d2B4G2 | 
[V:3] d8 | 
[V:4] B8 | 
[V:5] G,8 | 
[V:6] z4G,,4 | 
[V:1] G4E4 | 
[V:2] G6c2- | 
[V:3] e8 | 
[V:4] c8 | 
[V:5] E,8 | 
[V:6] C,8 | 
[V:1] A8 | 
[V:2] c2A4F2 | 
[V:3] c8 | 
[V:4] A8 | 
[V:5] F,8 | 
[V:6] F,,8 | 
[V:1] F8 | 
[V:2] F2B4AG | 
[V:3] d8 | 
[V:4] B8- | 
[V:5] D,6E,2 | 
[V:6] B,,6C,2 | 
[V:1] D6E2 | 
[V:2] F2D2G4 | 
[V:3] z4d4- | 
[V:4] B8 | 
[V:5] F,4D,4 | 
[V:6] D,4G,,4 | 
[V:1] F4D4 | 
[V:2] D6E2 | 
[V:3] d2e2f4 | 
[V:4] A8- | 
[V:5] z4F,4- | 
[V:6] z4D,4- | 
[V:1] z8 | 
[V:2] F4D4 | 
[V:3] d4z4 | 
[V:4] A8- | 
[V:5] F,2G,2A,4 | 
[V:6] D,2E,2F,4 | 
[V:1] F6G2 | 
[V:2] z8 | 
[V:3] z4D4- | 
[V:4] A8- | 
[V:5] F,4z4 | 
[V:6] D,4z4 | 
[V:1] A4F4 | 
[V:2] d6e2 | 
[V:3] D2E2F4 | 
[V:4] A8 | 
[V:5] z8 | 
[V:6] z4D,4- | 
[V:1] z8 | 
[V:2] f4d4 | 
[V:3] D4z4 | 
[V:4] z8 | 
[V:5] A,6B,2 | 
[V:6] D,2E,2F,2D,2 | 
[V:1] z8 | 
[V:2] z8 | 
[V:3] z8 | 
[V:4] z8 | 
[V:5] C4A,4 | 
[V:6] E,2C,4D,2 | 
[V:1] z8 | 
[V:2] z8 | 
[V:3] z8 | 
[V:4] z8 | 
[V:5] B,4A,2B,2- | 
[V:6] G,,2G,2F,2G,2- | 
[V:1] z4A4- | 
[V:2] z8 | 
[V:3] d6e2 | 
[V:4] z8 | 
[V:5] B,2A,G,F,4- | 
[V:6] G,2F,E,D,4- | 
[V:1] A2B2c4 | 
[V:2] z8 | 
[V:3] f2d2e2c2- | 
[V:4] z8 | 
[V:5] F,4z4 | 
[V:6] D,4z4 | 
[V:1] A4B4 | 
[V:2] z8 | 
[V:3] c2d4cB | 
[V:4] z8 | 
[V:5] z8 | 
[V:6] z8 | 
[V:1] A2B4AG | 
[V:2] z8 | 
[V:3] c2d2G2B2- | 
[V:4] z8 | 
[V:5] z8 | 
[V:6] z8 | 
[V:1] F8 | 
[V:2] z8 | 
[V:3] B2AGA4 | 
[V:4] z8 | 
[V:5] D,6E,2 | 
[V:6] z4D,4- | 
[V:1] z8 | 
[V:2] A6B2 | 
[V:3] z8 | 
[V:4] z8 | 
[V:5] F,2G,2A,2F,2 | 
[V:6] D,2E,2F,2D,2 | 
[V:1] z8 | 
[V:2] c4A4 | 
[V:3] z4z2d2- | 
[V:4] z8 | 
[V:5] G,2E,2F,4 | 
[V:6] E,2C,2D,4 | 
[V:1] z8 | 
[V:2] B4A2B2- | 
[V:3] d2cBc2d2 | 
[V:4] z8 | 
[V:5] G,4z4 | 
[V:6] G,,4z4 | 
[V:1] z4A4- | 
[V:2] B2AGF2A2- | 
[V:3] G4z4 | 
[V:4] z8 | 
[V:5] z2G,2A,2F,2 | 
[V:6] G,2F,E,D,4 | 
[V:1] A2B2c2A2 | 
[V:2] AGG4^F2 | 
[V:3] z4A4 | 
[V:4] z8 | 
[V:5] E,2D,4C,2 | 
[V:6] C,2B,,2A,,4 | 
[V:1] B4A2B2- | 
[V:2] G4z4 | 
[V:3] d3ef2d2- | 
[V:4] z8 | 
[V:5] D,2G,2F,2G,2 | 
[V:6] G,,4z2G,,2 | 
[V:1] BAG4^F2 | 
[V:2] d8 | 
[V:3] d2cBA4 | 
[V:4] z8 | 
[V:5] D,2E,2F,4 | 
[V:6] B,,2C,2D,4 | 
[V:1] G4G4 | 
[V:2] d4d4 | 
[V:3] G8 | 
[V:4] z8 | 
[V:5] D,4D,4 | 
[V:6] G,,4G,,4 | 
[V:1] G4G4 | 
[V:2] d4d4 | 
[V:3] B8 | 
[V:4] G8 | 
[V:5] D,6E,2 | 
[V:6] G,,4G,,4 | 
[V:1] F4D4 | 
[V:2] d4d2A2- | 
[V:3] A4F4 | 
[V:4] A8 | 
[V:5] F,2G,2A,4 | 
[V:6] D,4D,4 | 
[V:1] A8 | 
[V:2] ABcde2c2 | 
[V:3] z4z2A2- | 
[V:4] c8 | 
[V:5] z2F,2E,2F,2- | 
[V:6] A,,8 | 
[V:1] A8 | 
[V:2] A3Bc2A2 | 
[V:3] A2A2A2A2- | 
[V:4] c8 | 
[V:5] F,2E,D,E,4 | 
[V:6] A,,8 | 
[V:1] F2B2A2B2- | 
[V:2] z8 | 
[V:3] A2G2F2G2- | 
[V:4] d8 | 
[V:5] D,4D,4 | 
[V:6] z2G,,2D,2G,,2- | 
[V:1] B2AGA4 | 
[V:2] z8 | 
[V:3] G2FED4 | 
[V:4] d8 | 
[V:5] z8 | 
[V:6] G,,2G,4F,2 | 
[V:1] D8- | 
[V:2] z2B2A2B2- | 
[V:3] z8 | 
[V:4] z8 | 
[V:5] z2G,,2D,2G,,2- | 
[V:6] G,4F,2G,2- | 
[V:1] D8 | 
[V:2] B2AGA4 | 
[V:3] z8 | 
[V:4] z8 | 
[V:5] G,,2G,4F,2 | 
[V:6] G,2F,E,D,4 | 
[V:1] z8 | 
[V:2] e4c2f2- | 
[V:3] z4F4 | 
[V:4] c8 | 
[V:5] G,4A,4 | 
[V:6] C,4F,,4 | 
[V:1] z4z2A2- | 
[V:2] fed4cB | 
[V:3] D4F4 | 
[V:4] d8 | 
[V:5] B,4A,4 | 
[V:6] B,,4D,4 | 
[V:1] A2c3BA2- | 
[V:2] A2G2z2c2- | 
[V:3] E4E4 | 
[V:4] e4c4 | 
[V:5] z8 | 
[V:6] C,4A,,4 | 
[V:1] A2GFG4 | 
[V:2] c2BAB4 | 
[V:3] D4D4 | 
[V:4] d6d2 | 
[V:5] z4G,4 | 
[V:6] B,,4G,,4 | 
[V:1] A4F4 | 
[V:2] A4d4 | 
[V:3] z2A4B2 | 
[V:4] d8 | 
[V:5] D,4F,4 | 
[V:6] D,4D,4 | 
[V:1] G4A3G | 
[V:2] e4c4 | 
[V:3] G2c3BA2- | 
[V:4] z8 | 
[V:5] E,8 | 
[V:6] C,4A,,4 | 
[V:1] F2D4G2- | 
[V:2] d8- | 
[V:3] A2GFG4 | 
[V:4] z8 | 
[V:5] D,8 | 
[V:6] B,,4G,,4 | 
[V:1] G2^FEF4 | 
[V:2] d8 | 
[V:3] A4D4- | 
[V:4] A8 | 
[V:5] z4A,4 | 
[V:6] D,4z4 | 
[V:1] G8 | 
[V:2] z8 | 
[V:3] D4G4 | 
[V:4] d8 | 
[V:5] B,6B,2 | 
[V:6] G,,4G,,2G,,2 | 
[V:1] z8 | 
[V:2] z4e4 | 
[V:3] E2F2E2G2 | 
[V:4] c6B2 | 
[V:5] A,6G,2 | 
[V:6] A,,4C,2C,2 | 
[V:1] z8 | 
[V:2] d2f3ed2- | 
[V:3] D2d4B2 | 
[V:4] A4G4 | 
[V:5] F,4D,4 | 
[V:6] D,4B,,4 | 
[V:1] A8 | 
[V:2] d2^c2d4 | 
[V:3] c2A2z4 | 
[V:4] A8 | 
[V:5] E,4D,2F,2 | 
[V:6] A,,4z4 | 
[V:1] B4G4 | 
[V:2] z4d4 | 
[V:3] z2d4B2 | 
[V:4] G8 | 
[V:5] E,2D,4G,2- | 
[V:6] G,,4B,,2B,,2 | 
[V:1] A4d4 | 
[V:2] c4B4 | 
[V:3] c2A2z2d2 | 
[V:4] z8 | 
[V:5] G,2F,2G,4 | 
[V:6] A,,4G,,2G,2- | 
[V:1] c4B2B2 | 
[V:2] A4z2G2 | 
[V:3] e2f2d2e2- | 
[V:4] z8 | 
[V:5] z4G,4 | 
[V:6] G,2F,2G,2G,,2 | 
[V:1] A4z4 | 
[V:2] A2F2G4 | 
[V:3] edd4^c2 | 
[V:4] z8 | 
[V:5] F,2F,2E,4 | 
[V:6] D,4z4 | 
[V:1] A6B2 | 
[V:2] A4f4 | 
[V:3] d6B2- | 
[V:4] F6G2 | 
[V:5] D,8 | 
[V:6] z4D,4 | 
[V:1] c4d4 | 
[V:2] e4d4 | 
[V:3] BAA4G2 | 
[V:4] A4B4 | 
[V:5] z4D,4 | 
[V:6] C,4B,,4 | 
[V:1] A2c3BA2- | 
[V:2] c2A2c4 | 
[V:3] A8 | 
[V:4] c4A4 | 
[V:5] E,4F,4 | 
[V:6] A,,4F,,4 | 
[V:1] A2GFG4 | 
[V:2] B2G2z2d2- | 
[V:3] z4D3E | 
[V:4] B8 | 
[V:5] D,4G,4 | 
[V:6] G,,8 | 
[V:1] A8- | 
[V:2] d2f3ed2- | 
[V:3] F2DEFGA2- | 
[V:4] A8- | 
[V:5] F,4D,4 | 
[V:6] D,8 | 
[V:1] A8- | 
[V:2] d2^c=B^c4 | 
[V:3] A2GFE2A2- | 
[V:4] A8- | 
[V:5] E,8 | 
[V:6] A,,8 | 
[V:1] A8- | 
[V:2] d8- | 
[V:3] A2F4ED | 
[V:4] A8- | 
[V:5] D,8- | 
[V:6] D,8- | 
[V:1] A8 |]  
[V:2] d8 |]  
[V:3] F8 |]  
[V:4] A8 |]  
[V:5] D,8 |]  
[V:6] D,8 |]  



